X:382
T:Flop Eared Mule
S:Long forgotten
Z:Nigel Gatherer
L:1/8
M:4/4
K:D
de | f2 f2 d2 d2 | ABAG FE D2 | E2 G2 F2 E2 | DEFG A2 de |
     f2 f2 d2 d2 | ABAG FE D2 | E2 G2 F2 E2 | D4   D2   ||
cd | e2 c2 e2 c2 | efed cB A2 | B2 d2 c2 B2 | ABcd e2 cd |
     e2 c2 e2 c2 | efed cB A2 | B2 d2 c2 B2 | A4   A2   |]
<end>
<start>
